src/static/logos/prospect.svg

<?xml version="1.0" encoding="UTF-8" standalone="no"?>
<svg width="256px" height="256px" viewBox="0 0 256 256" version="1.1" xmlns="http://www.w3.org/2000/svg" xmlns:xlink="http://www.w3.org/1999/xlink" preserveAspectRatio="xMidYMid">
	<g>
		<path d="M236.2183,256 L19.7813,256 C8.8563,256 0.0003,247.143 0.0003,236.218 L0.0003,19.782 C0.0003,8.857 8.8563,0 19.7813,0 L236.2183,0 C247.1433,0 256.0003,8.857 256.0003,19.782 L256.0003,236.218 C256.0003,247.143 247.1433,256 236.2183,256" fill="#906ECA"></path>
		<path d="M155.3156,88.2493 C141.7476,74.7803 119.0736,77.9653 109.7406,94.6513 L95.5206,119.3993 C95.0436,120.2283 95.0596,121.2513 95.5616,122.0663 L110.5356,146.3543 L88.1476,132.9373 L56.3176,189.3743 C51.8776,197.2463 60.6166,205.9693 68.4806,201.5143 L92.7206,187.7823 L84.6776,172.0883 L100.5776,181.1583 C101.6646,181.7793 102.9986,181.7823 104.0886,181.1683 L153.5526,153.3203 L140.3726,129.0743 C140.3726,129.0743 162.5016,141.7543 167.6886,144.6783 C180.2246,133.9093 181.4526,114.1953 169.1606,101.9933 L155.3156,88.2493 Z M199.6836,88.9224 C196.6116,87.0384 192.5956,85.8724 188.1116,85.0654 L196.2796,65.6084 C197.3626,63.0274 194.8126,60.4124 192.2056,61.4304 L173.0686,68.9034 C172.9156,65.6224 171.2156,61.6754 168.8606,57.4454 C167.5816,53.9614 162.6246,54.0414 161.4596,57.5664 C160.1426,64.3744 157.6046,71.6504 154.2966,79.2214 C162.2016,85.9224 170.2246,93.7544 178.4146,103.2154 C186.3116,100.0504 193.6466,97.5394 199.6056,96.6284 C203.3596,95.4604 203.4136,90.1654 199.6836,88.9224 Z" fill="#FFFFFF"></path>
	</g>
</svg>

<svg width="256" height="256" xmlns="http://www.w3.org/2000/svg" preserveAspectRatio="xMidYMid"><path d="M236.218 256H19.781c-10.925 0-19.78-8.857-19.78-19.782V19.782C0 8.857 8.855 0 19.78 0h216.437C247.143 0 256 8.857 256 19.782v216.436c0 10.925-8.857 19.782-19.782 19.782" fill="#906ECA"/><path d="M155.316 88.25c-13.568-13.47-36.242-10.285-45.575 6.401L95.52 119.4a2.606 2.606 0 00.04 2.667l14.975 24.288-22.388-13.417-31.83 56.437c-4.44 7.872 4.299 16.595 12.163 12.14l24.24-13.732-8.043-15.694 15.9 9.07a3.559 3.559 0 003.51.01l49.465-27.848-13.18-24.246s22.129 12.68 27.316 15.604c12.536-10.769 13.764-30.483 1.472-42.685L155.316 88.25zm44.368.672c-3.072-1.884-7.088-3.05-11.572-3.857l8.168-19.457c1.083-2.58-1.467-5.196-4.074-4.178l-19.137 7.473c-.153-3.28-1.853-7.228-4.208-11.458-1.28-3.484-6.236-3.404-7.401.121-1.317 6.808-3.855 14.084-7.163 21.655 7.905 6.701 15.928 14.533 24.118 23.994 7.897-3.165 15.232-5.676 21.19-6.587 3.755-1.168 3.809-6.463.079-7.706z" fill="#FFF"/></svg>
